!!!!SEGMENT: pl-wnifc--13846--020_anonim--piesni-polskie-i-ruskie-ludu-galicyjskiego-20-dajze-boze-dobry-czas.krn
!!!kernsource:
!!!cenid: 18xx:3242
!!!COM: Anonim
!!!COM-rismID: pe30004985
!!!CDT:
!!!CNT:
!!!GTL: Pieśni polskie i ruskie ludu galicyjskiego
!!!OTL: 20. Dajże Boże dobry czas
!!!OMV: 020
!!!PDT: 1833
!!!AGN:
!!!SMS-siglum: PL-Wnifc
!!!SMS-shelfmark: 13846
!!!SMS-shelfwork: 001-020 G
!!!NIFC-rismSourceID: 1001036701
!!!NIFC-rismChildID: 1001036749
!!!NIFC-islandoraID: nifc:210326
!!!URL-pdf-islandora: https://repozytorium.nifc.pl/islandora/object/nifc%3A210326/datastream/PDF/view
!!!URL-scan:
!!!IIIF:
!!!ONB-nifc:
!!!AIN: 1 piano 1 vox
!!!key: D
!!!OMD: Andante con Moto
**kern	**kern	**kern	**text
*part2	*part2	*part1	*part1
*staff3	*staff2	*staff1	*staff1
*I"FORTEPIAN.	*I"FORTEPIAN.	*I"GŁOS.	*
*Ipiano	*Ipiano	*Ivox	*
*ICklav	*ICklav	*ICvox	*
*IGacmp	*IGacmp	*IGsolo	*
*clefF4	*clefG2	*clefG2	*
*k[f#c#]	*k[f#c#]	*k[f#c#]	*
*D:	*D:	*D:	*
*M2/4	*M2/4	*M2/4	*
=1-	=1-	=1-	=1-
!	!	!LO:TX:a:t=D.a.5.	!
8D/ 8DD/	8.dd\L 8.f#\	8.dd\L	Daj-
8r	.	.	.
.	16cc#\Jk 16a\	16cc#\Jk	-że
8D/ 8DD/	(16ee\LL 16cc#\	(16ee\LL	Bo-
.	16dd\ 16b\	16dd\	.
8r	16cc#\ 16a\)	16cc#\JJ)	.
.	16b\JJ 16g\|	16b\	-że
=2	=2	=2	=2
.	(8qb/ 8qg/	8qb/	.
8D/ 8DD/	8a/ 8f#\)	8a/	do-
8r	8a/| 8f#\	8a/	-bry
8D/ 8DD/	4f#/| 4d\	4f#/	czas
8r	.	.	.
!!LO:PB:g=original
=3	=3	=3	=3
8AA/ 8AAA/	(16a/LL 16f#/	(16a/LL	jak
.	16g/JJ 16e/)	16g/JJ)	.
8r	8g/ 8e/|	8g/	u
8AA/	(16g/LL 16e/	(16g/LL	lu-
.	16f#X/ 16d#X/	16f#/	.
8r	16g/ 16e/)	16g/JJ)	.
.	16b/JJ 16g/|	16b/	-dyj
=4	=4	=4	=4
8DD/	(16b/LL 16g/	(16b\LL	tak
.	16a/JJ 16f#/)	16a/JJ)	.
8r	16a/LL 16f#/	(16a/LL	u
.	16g#X/JJ 16e#X/	16g#X/JJ)	.
8D\	8a/ 8f#/	8a/	nas
8r	8r	8r	.
=5	=5	=5	=5
8D/ 8DD/	8.dd\L 8.f#\	8.dd\	i
8r	.	.	.
.	16ff#\Jk 16dd\|	16ff#\	szcza-
!!LO:LB:g=original
=	=	=	=
8D/ 8DD/	(16ee\LL 16cc#\	(16ee\LL	-sły-
.	16dd\ 16b\	16dd\	.
8r	16cc#/JJ 16a/)	16cc#\JJ)	.
.	16b\ 16g\|	16b\	-wu
=6	=6	=6	=6
8D/ 8DD/	(16b/LL 16g/	(16b\LL	ho-
.	16a/ 16f#/)	16a/	.
8r	16g#X/ 16e#X/	16g#X/JJ)	.
.	16a/JJ 16f#/	16a/	-dy-
8D/ 8DD/	8.dd/L 8.f#/	(8.dd/L	-nu,
8r	.	.	.
.	16f#/Jk 16d/	16f#/Jk)	.
=7	=7	=7	=7
.	8qa/ 8qf#/	8qa/	.
8AA/ 8AAA/	8g/L 8e\|L	8g/	roz-
8r	8g/J 8e\|J	8g/	-we-
8AA/ 8AAA/	8g/L 8e\|L	8g/	-se-
8r	8b/J 8g\|J	8b/	-lim
!!LO:LB:g=original
=8	=8	=8	=8
8D/ 8DD/	(16b/LL 16g/	(16b\LL	ro-
.	16a/ 16f#/	16a/	.
8r	16g#X/ 16e#X/	16g#X/JJ)	.
.	16b\JJ)	16b/	-dy-
8D/ 8DD/	8a/ 8f#/	8a/	-nu
8r	8r	8r	.
=9!|:	=9!|:	=9!|:	=9!|:
*^	*	*	*
16r	16AA/ 16AAA/	(16cc#/LL 16e/	16cc#\	oj
16A/LL	16ryy	16ee/J 16g/)	16ee\	nu,
16c#/	8ryy	8ee^/J 8g/	8ee\	nu,
16A/JJ	.	.	.	.
16r	16AA/ 16AAA/	(16cc#/LL 16e/	16cc#\	oj
16A/LL	16ryy	16ee/J 16g/)	16ee\	nu,
16c#/	8ryy	8ee/J 8g/	8ee\	nu,
16A/JJ	.	.	.	.
=10	=10	=10	=10	=10
16r	16D/ 16DD/	(16dd\LL 16f#\	16dd\	oj
16A/LL	16ryy	16ff#\J 16f#\)	16ff#\	nu,
16d/	8ryy	8ff#\J 8f#\	8ff#\	nu,
16A/JJ	.	.	.	.
!!LO:LB:g=original
16r	16D/ 16DD/	(16dd\LL 16f#\	16ff#\	oj
16A/LL	16ryy	16ff#\J 16f#\)	16ff#\	nu,
16d/	8ryy	8ff#\J 8f#\	8ff#\	nu,
16A/JJ	.	.	.	.
*v	*v	*	*	*
=11	=11	=11	=11
.	(32qg/LLL	.	.
.	32qcc#/	.	.
.	32qee/JJJ	.	.
!LO:TX:t=P:problem=mixed beam	!	!	!
8AA/L 8AAA/	8.gg\L)	8.gg\	roz-
8e\J 8c#\ 8A\	.	.	.
.	16ee\Jk	16ee\	-we-
!LO:TX:t=P:problem=mixed beam	!	!	!
8AA/L 8AAA/	16dd\LL	(16dd\LL	-se-
.	16cc#\	16cc#\	.
8e\J 8c#\ 8A\	16b\	16b\JJ)	.
.	16cc#\JJ	16cc#\	-lim
=12	=12	=12	=12
!LO:TX:t=P:problem=mixed beam	!	!	!
8DD/L	16dd/LL 16f#/	(16dd\LL	ro-
.	16ee\ 16cc#\	16ee\	.
8e\J 8c#\ 8A\	16ff#\ 16dd\	16ff#\JJ)	.
.	16gg\JJ 16ee\	16gg\	-dy-
!LO:TX:t=P:problem=mixed beam	!	!	!
8DD/L	4aa\ 4ff#\	4aa\	-nu
8d\J 8A\ 8D\	.	.	.
!!LO:PB:g=original
=13	=13	=13	=13
*^	*	*	*
16r	16AA/ 16AAA/	(16cc#\LL 16e\	16cc#\	oj
16A/LL	16ryy	16ee\J 16g\)	16ee\	nu,
16c#/	8ryy	8ee\J 8g\	8ee\	nu
16A/JJ	.	.	.	.
16r	16AA/ 16AAA/	(16cc#\LL 16e\	16ee\	oj
16A/LL	16ryy	16ee\J 16g\)	16ee\	nu,
16c#/	8ryy	8ee\J 8g\	8ee\	nu,
16A/JJ	.	.	.	.
=14	=14	=14	=14	=14
16r	16D/ 16DD/	(16dd\LL 16f#\	16dd\	oj
16A/LL	16ryy	16ff#\J 16a\)	16ff#\	nu,
(16d/	8ryy	8ff#\J 8a\	8ff#\	nu,
16A/JJ)	.	.	.	.
16r	16D/ 16DD/	(16dd\LL 16f#\	16dd\	oj
16A/LL	16ryy	16ff#\J 16a\)	16ff#\	nu,
(16d/	8ryy	8ff#\J 8a\	8ff#\	nu
16A/JJ)	.	.	.	.
*v	*v	*	*	*
!!LO:LB:g=original
=15	=15	=15	=15
.	(32qg/LLL	.	.
.	32qcc#/	.	.
.	32qee/JJJ	.	.
!LO:TX:t=P:problem=mixed beam	!	!	!
8AA/L 8AAA/	8.gg\L)	8.gg\	roz-
8e\J 8c#\ 8A\	.	.	.
.	16ee\Jk	16ee\	-we-
!LO:TX:t=P:problem=mixed beam	!	!	!
8AA/L 8AAA/	(16dd\LL	(16dd\LL	-se-
.	16cc#\	16cc#\	.
8e\J 8c#\ 8A\	16b\)	16b\JJ)	.
.	16cc#\|JJ	16cc#\	-lim
=16	=16	=16	=16
!LO:TX:t=P:problem=mixed beam	!	!	!
8DD/L	8dd\L	8dd\	ro-
8d\ 8A\ 8D\	8dd\ 8f#\	8dd\	-dy-
8d\J 8A\ 8D\	8dd\J 8f#\	8dd\	-nu.
8r	8r	8r	.
==	==	==	==
*-	*-	*-	*-
!!!system-decoration: s1{(s2,s3)}
!!!RDF**kern: | = vertical stroke
!!!ENC: Marta Lawrence
!!!END: 2021-11-10
!!!YEC: Copyright 2022 Narodowy Instytut Fryderyka Chopina (https://polishscores.org)
!!!YEM: License CC-BY-4.0 (https://creativecommons.org/licenses/by/4.0)
